X: 1
T:Largo From "The new world"
C:Dvorak
M:C
Q:1/4=100
K:C
"C"(EG)G2|"C"(ED)C2|"G"(DEGE)|"G"D4|
"C"(EG)G2|"C"(ED)C2|"F"(DE)"G"(DC)|"C"C4|
"F"(Ac)c2|"F"(BG)A2|"F"(Ac)(BG)|"F"A4|
"F"(Ac)c2|"F"(BG)A2|"F"(AcBG)|"F"A4|
"C"EGG2|"C"EDC2|"G"DEGE|"G"D4|
"C"(EG)G2|"C"(ED)C2|"F"(DE)"G"(DC)|"C"C4|]